img/icons/sprite/icon-plane.svg

<svg width="21" height="23" viewBox="0 0 21 23" xmlns="http://www.w3.org/2000/svg">
  <g clip-path="url(#clip0)">
    <path
      d="M16.7831 2.09314C16.0546 2.26635 15.3227 2.44038 15.0504 2.91723L12.9433 7.11585L1.62916 9.8059L1.17076 11.1474L9.82861 11.9662L8.35967 15.6009L5.07624 16.3816L4.25187 17.8101L6.62062 18.0673L6.89073 19.2357C7.01174 19.6498 7.43649 19.9263 7.79903 19.8401L8.89351 19.5799L10.1622 21.7433L10.9866 20.3148L10.1763 16.8098L12.5535 13.7795L17.0895 21.741L18.0042 20.7031L15.2128 8.62921L17.7762 4.73424C18.0519 4.25657 17.8721 3.47891 17.6914 2.69759C17.6019 2.31059 17.1457 2.00694 16.7831 2.09314Z" />
  </g>
  <defs>
    <clipPath id="clip0">
      <rect width="20.8265" height="21.12" fill="white" transform="translate(0 0.959961)" />
    </clipPath>
  </defs>
</svg>

<svg width="21" height="23" xmlns="http://www.w3.org/2000/svg"><g clip-path="url(#clip0)"><path d="M16.783 2.093c-.728.173-1.46.347-1.733.824l-2.107 4.199L1.63 9.806l-.458 1.341 8.658.82-1.47 3.634-3.283.78-.824 1.43 2.369.256.27 1.169c.12.414.545.69.908.604l1.095-.26 1.268 2.163.825-1.428-.81-3.505 2.377-3.03 4.536 7.961.914-1.038L15.213 8.63l2.563-3.895c.276-.477.096-1.255-.085-2.036-.09-.387-.545-.691-.908-.605z"/></g><defs><clipPath id="clip0"><path fill="#fff" transform="translate(0 .96)" d="M0 0h20.826v21.12H0z"/></clipPath></defs></svg>
